X:40
T:The Green Fields of Woodford
D:Kevin Burke & Cal Scott: Across the Black River
R:jig
M:6/8
K:G
d|dBA G2E|EDE G2d|edB dBA|Bee ege|
dBA G2E|EDE G3|AGE A2B|1 GED D2 :|2 GED D2c||
|: BGG dGG|edB dBA|BGG dGG|edB A2c|
BGG deg|age d2B|GAB AGE|1 GED D2c :|2 GED D2 ||
